X: 14105
T: Friendly Visit, The
R: hornpipe
M: 4/4
K: Amajor
|:cB|(3ABA EA cAce|dcBc defg|a2 ea fdBA|GABc dBGB|
(3ABA EA cAce|dcBc defg|aecA EGBd|c2 A2 A2:|
|:(3efg|a2 ec Acea|f2 dB F3 f|g2 fe ^defa|gef^d e=dcB|
(3ABA EA cAce|dcBc defg|aecA EGBd|c2 A2 A2:|

